X:665
T: Purcell the Piper (with piano acc.)
C: BB
M: 4/4
Q: 1/8=350
L: 1/8
R: reel
V: 1 program 1 73 %flute
V: 2 volume=70 clef=bass m=D program 1 01
K: G
[V:1] A|"G"GEDE GABd|"Em"e2 ef edBd|"G"gfef "C"g3 e|"G"d2 BG "D7"AcBA|
[V:2] z|G,,2[G2B2D2]D,2[G2B2D2]|E,2[E2B2G2]B,,2[E2G2B2]|G,,2[G2B2D2]C,2[E2G2C2]|\
G,,2[G2B2D2]D,2[A2C2F2]|
%
[V:1] "G"GEDE GABd|"Em"e2 ef edBA|"G"GBdg "D7"fdcA|"G"BG"D"AF "G"G3 :|
[V:2] G,,2[G2B2D2]D,2[G2B2D2]|E,2[E2B2G2]B,,2[E2G2B2]|\
G,,2[G2B2D2]D,2[A2C2F2]|[G,2B,2D2][D,2F,2A,2][G,,3B,3D,3]:|
%
[V:1] d|"G"gfga "D"fd (3d^cd|"C"cBcd "G"BG (3GFG|"Am"EAAB "C"cBce|"D"d2ef "G"gaba|
[V:2] z|G,,2[G2B2D2]D,2[A2D2F2]|C,2[E2G2C2]G,,2[G2B2D2]|A,,2[A2C2E2]C,2[E2G2C2]|\
D,2[A2D2F2]G,,2[G2B2D2]|
%
[V:1] "G"gfga "D"fd (3d^cd|"C"cBcd "G"BGAG|"Am"EAAB "C"cABG|"D"D2EF "G"G3 :|
[V:2] G,,2[G2B2D2]D,2[A2D2F2]|C,2[E2G2C2]G,,2[G2B2D2]|A,,2[A2C2E2]C,2[E2G2C2]|\
D,2[A2D2F2][G,3B,3D3] :|
%%%%%%%%%%%%%%%%%%%%%%%%%%%%%%%%%%%%%%%%%%%
